src/Components/Chatbot/assets/button.svg

<svg width="59" height="46" viewBox="0 0 59 46" fill="none" xmlns="http://www.w3.org/2000/svg">
<path fill-rule="evenodd" clip-rule="evenodd" d="M33.0586 46C47.1419 46 58.5586 35.7025 58.5586 23C58.5586 10.2975 47.1419 0 33.0586 0C18.9754 0 7.55865 10.2975 7.55865 23C7.55865 26.4426 8.3972 29.7085 9.90013 32.6407L0 45.5336L16.3474 40.3731C20.8228 43.8783 26.666 46 33.0586 46Z" fill="#EE4623"/>
<path d="M48.9092 26.541L45.172 29.0112C44.9324 29.1714 44.64 29.2325 44.3563 29.1819C44.072 29.13 43.8183 28.9711 43.6476 28.7379C43.4747 28.5019 43.3959 28.2101 43.4263 27.9193C43.4556 27.6288 43.5935 27.3602 43.8125 27.1672C43.8511 27.1299 43.8932 27.0965 43.9383 27.0674L47.6741 24.5957C47.8812 24.4571 48.1288 24.392 48.3773 24.4106C48.6258 24.4292 48.8609 24.5305 49.0451 24.6984C49.2312 24.8688 49.3575 25.0945 49.4054 25.3421C49.4533 25.5898 49.4203 25.8463 49.3113 26.0738C49.2653 26.174 49.2043 26.2667 49.1305 26.3486C49.0654 26.4221 48.991 26.4868 48.9092 26.541V26.541Z" fill="#353635"/>
<path d="M49.1373 26.3471L46.6367 25.2856L46.9607 25.0701L49.3152 26.0738C49.2702 26.1734 49.2102 26.2656 49.1373 26.3471Z" fill="#FCB91F"/>
<path d="M48.5594 26.7752L48.2355 26.9907L45.6943 25.9103L46.0226 25.6934L48.5594 26.7752Z" fill="#FCB91F"/>
<path d="M47.6116 27.3985L47.2833 27.6198L44.7422 26.5437L45.0705 26.3181L47.6116 27.3985Z" fill="#FCB91F"/>
<path d="M46.664 28.0247L46.3386 28.2402L43.8076 27.1656C43.8474 27.1296 43.89 27.0967 43.9349 27.0673L44.1215 26.9443L46.664 28.0247Z" fill="#FCB91F"/>
<path d="M42.9069 25.7542L46.378 31.0938L45.4408 31.7143L41.9697 26.3732L42.9069 25.7542Z" fill="#353635"/>
<path d="M18.9455 26.551L22.6899 29.0097C22.9296 29.1696 23.2222 29.2298 23.5056 29.1775C23.7885 29.1249 24.0408 28.9666 24.2114 28.7349C24.3858 28.497 24.4643 28.2022 24.4312 27.9091C24.4013 27.619 24.2628 27.3509 24.0436 27.1585C24.0046 27.1221 23.9625 27.0892 23.9178 27.0601L20.1748 24.6014C19.9676 24.4639 19.7203 24.3998 19.4723 24.4192C19.2243 24.4386 18.99 24.5404 18.8066 24.7085C18.6199 24.8786 18.4939 25.1051 18.448 25.3535C18.4004 25.6012 18.4333 25.8577 18.542 26.0853C18.5876 26.1856 18.6492 26.2779 18.7242 26.3587C18.7889 26.4326 18.8633 26.4973 18.9455 26.551V26.551Z" fill="#353635"/>
<path d="M18.7243 26.3587L21.222 25.2899L20.898 25.0758L18.5449 26.0882C18.5912 26.1866 18.6516 26.2777 18.7243 26.3587V26.3587Z" fill="#FCB91F"/>
<path d="M19.3018 26.7839L19.6286 26.9994L22.1654 25.9132L21.8371 25.6978L19.3018 26.7839Z" fill="#FCB91F"/>
<path d="M20.2461 27.4072L20.5744 27.6198L23.1126 26.5379L22.7843 26.3181L20.2461 27.4072Z" fill="#FCB91F"/>
<path d="M21.1953 28.0306L21.5207 28.2446L24.0459 27.1628C24.0064 27.1264 23.9638 27.0935 23.9187 27.0645L23.7321 26.943L21.1953 28.0306Z" fill="#FCB91F"/>
<path d="M24.9469 25.7498L21.4961 31.101L22.4347 31.7186L25.8856 26.3673L24.9469 25.7498Z" fill="#353635"/>
<path d="M41.6308 32.639C41.6395 32.7229 41.6829 32.9182 41.68 33.0021C41.6568 33.2016 41.4225 33.3159 41.1188 33.3173L26.7572 33.462C26.5244 33.462 26.3349 33.3376 26.332 33.1828L26.3667 32.9457L41.6308 32.639Z" fill="#091D28"/>
<path opacity="0.2" d="M43.1829 16.0575L35.6333 16.1399C35.5793 16.14 35.5258 16.1297 35.4757 16.1095C35.425 16.0881 35.3789 16.0571 35.3397 16.0184C35.3011 15.98 35.2706 15.9343 35.2501 15.8839C35.2284 15.8326 35.2171 15.7776 35.2168 15.7219C35.2168 15.6665 35.2271 15.6116 35.2472 15.5599C35.267 15.5086 35.297 15.4619 35.3354 15.4225C35.3729 15.3835 35.4176 15.352 35.467 15.33C35.5172 15.3082 35.5714 15.2969 35.6261 15.2967L43.1742 15.2172C43.2284 15.2168 43.2821 15.2276 43.3319 15.249C43.3826 15.2696 43.4287 15.3002 43.4675 15.339C43.5062 15.3777 43.5368 15.4239 43.5575 15.4746C43.5787 15.5255 43.59 15.58 43.5908 15.6351C43.591 15.7459 43.5479 15.8523 43.4707 15.9316C43.3943 16.0092 43.2903 16.0534 43.1815 16.0546L43.1829 16.0575Z" fill="white"/>
<path d="M44.8538 14.4968L27.5866 14.6747C26.9224 14.6807 26.2675 14.8312 25.6674 15.1158C25.0615 15.4015 24.5244 15.8144 24.0924 16.3264C24.0026 16.43 23.9181 16.5381 23.8393 16.6503C23.255 17.4834 23.6036 18.4799 23.6137 19.5082L22.96 20.3326L23.041 28.3797C23.0502 29.6413 23.5527 30.8492 24.441 31.7452C24.8758 32.1842 25.3942 32.5317 25.9655 32.7672C26.5368 33.0027 27.1495 33.1214 27.7674 33.1162L40.3587 32.9861C40.974 32.9797 41.5818 32.8504 42.1463 32.6057C42.7139 32.3587 43.2267 32.0013 43.6548 31.5543C44.087 31.1049 44.4271 30.5753 44.6556 29.9952C44.8858 29.4119 45.0012 28.7897 44.9955 28.1627V28.1541L44.8538 14.4968ZM41.9872 24.0423C41.9887 24.2027 41.9757 24.3629 41.9482 24.521C41.8461 25.1025 41.5462 25.6308 41.0992 26.0165C40.6596 26.397 40.0998 26.6101 39.5184 26.6181L29.2889 26.7222C28.9632 26.7209 28.6411 26.6549 28.3412 26.528C28.0413 26.4011 27.7695 26.2159 27.5418 25.9832C27.0729 25.507 26.8072 24.8673 26.8007 24.199C26.7943 23.5307 27.0475 22.886 27.5071 22.4008C27.7306 22.1631 27.9991 21.9723 28.2971 21.8394C28.595 21.7066 28.9165 21.6344 29.2426 21.627L39.4678 21.533C39.7964 21.5298 40.1222 21.5921 40.4264 21.7163C40.7306 21.8404 41.007 22.0239 41.2395 22.2561C41.7141 22.733 41.983 23.3768 41.9887 24.0495L41.9872 24.0423Z" fill="#122A40"/>
<path d="M42.497 21.0731H25.8271V27.3182H42.497V21.0731Z" fill="#122A40"/>
<path d="M26.0171 24.1826C26.0173 24.3562 26.0328 24.5295 26.0634 24.7004C26.1791 25.3209 26.5049 25.8827 26.9861 26.2913C27.4608 26.6935 28.0619 26.9157 28.684 26.919L39.6396 26.9363C40.2631 26.933 40.8655 26.7097 41.3404 26.3058C41.821 25.8998 42.1477 25.3413 42.266 24.7235C42.2978 24.5533 42.3138 24.3804 42.3138 24.2072C42.3169 23.4868 42.0369 22.7939 41.5342 22.2779C41.2899 22.0258 40.9978 21.825 40.675 21.6872C40.3521 21.5494 40.0051 21.4773 39.6541 21.4752L28.6913 21.4622C28.339 21.4619 27.9902 21.5321 27.6653 21.6684C27.3405 21.8048 27.0461 22.0046 26.7995 22.2562C26.2952 22.7715 26.0137 23.4645 26.0156 24.1855L26.0171 24.1826Z" fill="#F0977E"/>
<path d="M26.0664 24.7004C26.1817 25.3207 26.507 25.8825 26.9877 26.2913C27.463 26.6933 28.0645 26.9155 28.6871 26.919L39.6412 26.9363C40.2648 26.9333 40.8672 26.7099 41.342 26.3057C41.8238 25.9006 42.1513 25.3418 42.2691 24.7235C42.1534 24.103 41.8275 23.5412 41.3464 23.1326C40.8717 22.7304 40.2706 22.5082 39.6484 22.5049L28.6929 22.4875C28.0686 22.4923 27.4661 22.7177 26.992 23.1239C26.5126 23.5284 26.186 24.0846 26.0664 24.7004V24.7004Z" fill="#F9C197"/>
<path d="M18.5127 14.7225L21.4891 13L24.8011 18.9543L22.5203 20.2748L22.046 19.7975L21.4241 19.9595L18.5127 14.7225Z" fill="#F26E26"/>
<path d="M17.1501 15.975L16.5586 19.4084L23.1623 20.5886L23.7509 17.1537L17.1501 15.975Z" fill="#F26E26"/>
<path d="M44.9258 16.7053L44.9634 20.3673L22.7905 20.5958V19.783C22.7768 18.7585 23.0927 17.7566 23.6915 16.9252L44.9258 16.7053Z" fill="#F26E26"/>
<path opacity="0.2" d="M44.122 18.2067L36.5739 18.2891C36.5194 18.289 36.4655 18.2787 36.4148 18.2587C36.3388 18.2265 36.274 18.1727 36.2282 18.104C36.182 18.0351 36.1573 17.9541 36.1574 17.8711C36.1559 17.8157 36.1657 17.7606 36.1863 17.7091C36.2059 17.6556 36.2359 17.6064 36.2745 17.5645C36.3122 17.5251 36.3575 17.4936 36.4076 17.4719C36.4572 17.45 36.5109 17.4387 36.5652 17.4387L44.1134 17.3591C44.1678 17.3592 44.2218 17.3695 44.2725 17.3895C44.3225 17.4113 44.3681 17.4422 44.407 17.4806C44.4464 17.5222 44.4769 17.5715 44.4966 17.6252C44.5184 17.676 44.5297 17.7306 44.5299 17.7858C44.5269 17.894 44.4836 17.9971 44.4084 18.075C44.3322 18.153 44.2282 18.1977 44.1191 18.1994L44.122 18.2067Z" fill="white"/>
<path opacity="0.2" d="M35.2357 19.893L31.62 19.9277C31.5735 19.9291 31.5271 19.9207 31.484 19.9032C31.4187 19.8771 31.3626 19.832 31.3232 19.7737C31.2837 19.7154 31.2627 19.6467 31.2628 19.5763C31.2619 19.5296 31.2703 19.4832 31.2874 19.4398C31.3045 19.3964 31.3301 19.3567 31.3625 19.3232C31.3952 19.29 31.4341 19.2637 31.4771 19.2458C31.5201 19.2279 31.5662 19.2188 31.6128 19.2191L35.2285 19.1829C35.2984 19.1818 35.367 19.2019 35.4252 19.2408C35.4835 19.2796 35.5288 19.335 35.5553 19.3998C35.5832 19.465 35.5912 19.537 35.5783 19.6067C35.5655 19.6765 35.5323 19.7408 35.483 19.7918C35.451 19.8252 35.4127 19.8517 35.3702 19.8699C35.3283 19.8887 35.283 19.8985 35.2371 19.8988L35.2357 19.893Z" fill="white"/>
<ellipse cx="31" cy="24.5" rx="1" ry="1.5" fill="#122A40"/>
<ellipse cx="37" cy="24.5" rx="1" ry="1.5" fill="#122A40"/>
</svg>

<svg width="59" height="46" fill="none" xmlns="http://www.w3.org/2000/svg"><path fill-rule="evenodd" clip-rule="evenodd" d="M33.059 46c14.083 0 25.5-10.297 25.5-23S47.142 0 33.059 0c-14.084 0-25.5 10.297-25.5 23 0 3.443.838 6.709 2.341 9.64L0 45.535l16.347-5.16C20.823 43.877 26.666 46 33.06 46z" fill="#EE4623"/><path d="M48.91 26.541l-3.738 2.47a1.115 1.115 0 01-1.524-.273 1.178 1.178 0 01.29-1.67l3.736-2.472a1.115 1.115 0 011.371.102 1.176 1.176 0 01-.136 1.843z" fill="#353635"/><path d="M49.137 26.347l-2.5-1.061.324-.216 2.354 1.004c-.045.1-.105.192-.178.273zM48.56 26.775l-.325.216-2.54-1.08.328-.218 2.536 1.082zM47.612 27.398l-.329.222-2.54-1.076.328-.226 2.54 1.08zM46.664 28.025l-.325.215-2.531-1.074c.04-.036.082-.07.127-.099l.186-.123 2.543 1.08z" fill="#FCB91F"/><path d="M42.907 25.754l3.471 5.34-.937.62-3.471-5.34.937-.62zM18.945 26.551l3.745 2.459c.24.16.532.22.816.167.282-.052.535-.21.705-.442.175-.238.253-.533.22-.826a1.157 1.157 0 00-.513-.849l-3.743-2.459a1.113 1.113 0 00-1.368.108 1.181 1.181 0 00-.082 1.65c.064.074.138.138.22.192z" fill="#353635"/><path d="M18.724 26.359l2.498-1.07-.324-.213-2.353 1.012c.046.099.107.19.18.27zM19.302 26.784l.327.215 2.536-1.086-.328-.215-2.535 1.086zM20.246 27.407l.328.213 2.539-1.082-.329-.22-2.538 1.09zM21.195 28.03l.326.215 2.525-1.082a.93.93 0 00-.127-.099l-.187-.121-2.537 1.088z" fill="#FCB91F"/><path d="M24.947 25.75l-3.45 5.351.938.618 3.45-5.352-.938-.617z" fill="#353635"/><path d="M41.63 32.639c.01.084.053.28.05.363-.023.2-.258.314-.561.315l-14.362.145c-.233 0-.422-.124-.425-.28l.035-.236 15.264-.307z" fill="#091D28"/><path opacity=".2" d="M43.183 16.058l-7.55.082a.42.42 0 01-.293-.122.421.421 0 01-.093-.458.42.42 0 01.22-.23.403.403 0 01.16-.033l7.547-.08a.41.41 0 01.383.257.424.424 0 01-.087.457.412.412 0 01-.288.124v.003z" fill="#fff"/><path d="M44.854 14.497l-17.267.178a4.575 4.575 0 00-1.92.44 4.662 4.662 0 00-1.575 1.211c-.09.104-.174.212-.253.324-.584.833-.235 1.83-.225 2.858l-.654.825.081 8.047a4.83 4.83 0 001.4 3.365 4.628 4.628 0 003.326 1.371l12.592-.13a4.615 4.615 0 003.296-1.432c.432-.45.772-.979 1-1.559.23-.583.346-1.205.34-1.832v-.009l-.141-13.657zm-2.867 9.545a2.56 2.56 0 01-.888 1.974c-.44.381-1 .594-1.58.602l-10.23.104a2.457 2.457 0 01-1.747-.739 2.579 2.579 0 01-.035-3.582 2.46 2.46 0 011.736-.774l10.225-.094a2.472 2.472 0 011.771.723c.475.477.744 1.12.75 1.793l-.002-.007z" fill="#122A40"/><path d="M42.497 21.073h-16.67v6.245h16.67v-6.245z" fill="#122A40"/><path d="M26.017 24.183a2.748 2.748 0 00.969 2.109 2.648 2.648 0 001.698.627l10.956.017a2.647 2.647 0 001.7-.63 2.748 2.748 0 00.974-2.099 2.748 2.748 0 00-.78-1.93 2.64 2.64 0 00-1.88-.802l-10.963-.013a2.646 2.646 0 00-1.892.794 2.748 2.748 0 00-.783 1.93l.001-.003z" fill="#F0977E"/><path d="M26.066 24.7c.116.62.441 1.183.922 1.591a2.655 2.655 0 001.7.628l10.953.017a2.643 2.643 0 001.701-.63c.482-.405.81-.964.927-1.582a2.748 2.748 0 00-.923-1.591 2.648 2.648 0 00-1.698-.628l-10.955-.017a2.645 2.645 0 00-1.701.636c-.48.404-.806.96-.926 1.576z" fill="#F9C197"/><path d="M18.513 14.723L21.489 13l3.312 5.954-2.28 1.32-.475-.477-.622.162-2.911-5.236z" fill="#F26E26"/><path d="M17.15 15.975l-.591 3.433 6.603 1.18.589-3.434-6.6-1.179z" fill="#F26E26"/><path d="M44.926 16.705l.037 3.662-22.172.229v-.813a4.78 4.78 0 01.9-2.858l21.235-.22z" fill="#F26E26"/><path opacity=".2" d="M44.122 18.207l-7.548.082a.435.435 0 01-.16-.03.422.422 0 01-.257-.388.406.406 0 01.03-.162.41.41 0 01.379-.27l7.547-.08c.055 0 .109.01.16.03.05.022.095.053.134.092.04.041.07.09.09.144a.41.41 0 01.033.16.434.434 0 01-.122.29.413.413 0 01-.289.124l.003.008zM35.236 19.893l-3.616.035a.352.352 0 01-.357-.351.354.354 0 01.214-.331.347.347 0 01.136-.027l3.615-.036a.344.344 0 01.327.217.36.36 0 01-.185.47.33.33 0 01-.133.029l-.001-.006z" fill="#fff"/><ellipse cx="31" cy="24.5" rx="1" ry="1.5" fill="#122A40"/><ellipse cx="37" cy="24.5" rx="1" ry="1.5" fill="#122A40"/></svg>
